src/containers/site/SiteExchangeScreen/asset/exchange_feature_1.svg

<svg width="74" height="71" viewBox="0 0 74 71" fill="none" xmlns="http://www.w3.org/2000/svg">
<path d="M65 35.5C65 38.3198 61.1996 40.4832 60.366 43.0113C59.5079 45.6367 61.2487 49.5989 59.655 51.7867C58.0368 53.9988 53.6725 53.5612 51.4413 55.1656C49.2347 56.7457 48.303 60.9996 45.655 61.8504C43.1051 62.6769 39.8441 59.8085 37 59.8085C34.1559 59.8085 30.9194 62.6769 28.345 61.8504C25.697 60.9996 24.7653 56.7457 22.5587 55.1656C20.3275 53.5612 15.9632 53.9988 14.345 51.7867C12.7513 49.5989 14.4921 45.6367 13.634 43.0113C12.8004 40.4832 9 38.2955 9 35.5C9 32.6802 12.8004 30.5168 13.634 27.9887C14.4921 25.3633 12.7513 21.4011 14.345 19.2133C15.9632 17.0012 20.3275 17.4388 22.5587 15.8344C24.7653 14.2544 25.697 10.0004 28.345 9.14956C30.8949 8.32307 34.1559 11.1915 37 11.1915C39.8441 11.1915 43.0806 8.32307 45.655 9.14956C48.303 10.0004 49.2347 14.2544 51.4413 15.8344C53.6725 17.4388 58.0368 17.0012 59.655 19.2133C61.2487 21.4011 59.5079 25.3633 60.366 27.9887C61.1996 30.5168 65 32.6802 65 35.5Z" fill="url(#paint0_linear)"/>
<path fill-rule="evenodd" clip-rule="evenodd" d="M25.5757 70.7439C26.1162 70.9164 26.6813 70.9902 27.2218 70.9902C29.1633 70.9902 31.0809 70.0289 32.8324 69.1509L32.8971 69.1184C34.3712 68.3796 35.8944 67.6161 37 67.6161C38.1056 67.6161 39.6288 68.3796 41.1029 69.1184C43.3632 70.276 45.9183 71.5567 48.4243 70.7439C51.0248 69.9078 52.3514 67.3034 53.5294 64.9908L53.5345 64.9808L53.5863 64.8805C54.3061 63.4847 55.0282 62.0848 55.844 61.4835C56.7038 60.8678 58.3499 60.5968 59.9223 60.3506L59.9522 60.3456C62.4755 59.9282 65.3336 59.4553 66.9243 57.2719C68.5212 55.1046 68.079 52.2477 67.6859 49.7109C67.6781 49.6602 67.6703 49.6094 67.6625 49.5587C67.4237 48.0061 67.1809 46.4271 67.5139 45.4254C67.8333 44.4895 68.9635 43.332 70.0691 42.2237C71.9117 40.3765 74 38.2831 74 35.5C74 32.7169 71.9117 30.6235 70.0691 28.7763C68.9635 27.668 67.8088 26.5105 67.5139 25.5746C67.1946 24.5401 67.4402 22.89 67.6859 21.2891L67.6971 21.2129C68.0632 18.7188 68.4808 15.8735 66.9243 13.7281C65.3336 11.5447 62.4755 11.0718 59.9522 10.6544L59.9223 10.6494C58.3254 10.4032 56.7038 10.1322 55.844 9.51651C55.0086 8.90079 54.247 7.44769 53.5345 6.01921L53.4868 5.92654C52.3193 3.65811 50.9935 1.08216 48.4243 0.25605C45.9474 -0.547266 43.4225 0.718602 41.1818 1.84203L41.1029 1.88156C39.6288 2.62042 38.1056 3.38392 37 3.38392C35.8944 3.38392 34.3712 2.62042 32.8971 1.88156C30.6368 0.724 28.0817 -0.556703 25.5757 0.25605C22.9752 1.09223 21.6486 3.6966 20.4706 6.00923L20.4655 6.01921C20.4482 6.05263 20.431 6.08607 20.4137 6.1195C19.6939 7.51522 18.9718 8.9152 18.156 9.51651C17.2961 10.1322 15.6501 10.4032 14.0777 10.6494L14.0478 10.6544C11.5245 11.0718 8.66636 11.5447 7.0757 13.7281C5.47875 15.8954 5.92098 18.7523 6.31408 21.2891C6.32186 21.3398 6.32966 21.3906 6.33747 21.4414C6.57626 22.9939 6.81912 24.5729 6.48606 25.5746C6.16667 26.5105 5.03652 27.668 3.93094 28.7763C2.08831 30.6235 0 32.7169 0 35.5C0 38.2831 2.08831 40.3765 3.93094 42.2237L3.93097 42.2237C5.03654 43.332 6.19124 44.4896 6.48606 45.4254C6.80544 46.4599 6.55976 48.11 6.31408 49.7109L6.30289 49.7871C5.93683 52.2811 5.5192 55.1265 7.0757 57.2719C8.66636 59.4553 11.5245 59.9282 14.0478 60.3456L14.0777 60.3506C15.6746 60.5968 17.2961 60.8678 18.156 61.4835C18.9914 62.0992 19.753 63.5523 20.4655 64.9808L20.5132 65.0735C21.6807 67.3419 23.0065 69.9178 25.5757 70.7439ZM42.7381 65.5303C40.8886 64.6148 38.9912 63.6755 37 63.6755C35.0088 63.6755 33.1114 64.6148 31.2619 65.5303C31.2173 65.5524 31.1727 65.5745 31.1282 65.5965C31.0789 65.6208 31.0295 65.6452 30.9799 65.6697C29.4214 66.4397 27.7082 67.286 26.7796 66.9757C25.7231 66.6309 24.8141 64.8576 23.9542 63.1582L23.9181 63.0878C22.9958 61.287 22.0419 59.4244 20.4655 58.2817C18.8685 57.0995 16.7556 56.7547 14.7165 56.4346C12.8493 56.139 10.9084 55.8188 10.2696 54.9322C9.63081 54.0702 9.92563 52.1491 10.2205 50.2773C10.5398 48.2085 10.8592 46.0904 10.245 44.1694C9.63081 42.3468 8.15671 40.8445 6.73174 39.416C5.35591 38.0614 3.95551 36.6329 3.95551 35.4754C3.95551 34.3178 5.35591 32.914 6.73174 31.5347C8.18128 30.1063 9.65538 28.6285 10.245 26.7814C10.8592 24.8603 10.5398 22.7422 10.2205 20.6734C10.2144 20.6312 10.2082 20.5889 10.2021 20.5467C9.93736 18.7155 9.66924 16.8611 10.2696 16.0185C10.9084 15.1319 12.8493 14.8117 14.7165 14.5162C16.7556 14.196 18.8685 13.8512 20.4655 12.669C22.0418 11.5264 22.9958 9.66376 23.9181 7.86295L23.9542 7.79249C24.8141 6.0931 25.7231 4.31982 26.7796 3.97501C27.7479 3.65954 29.5033 4.53962 31.0588 5.31945L31.1282 5.35423C31.1727 5.37628 31.2173 5.39835 31.2619 5.42043C33.1114 6.33599 35.0089 7.27529 37 7.27529C39.0398 7.27529 40.9595 6.3129 42.8067 5.38688L42.8718 5.35423C42.9409 5.32014 43.0103 5.28582 43.08 5.25138C44.6203 4.48958 46.2802 3.66869 47.2205 3.97501C48.2769 4.31982 49.1859 6.0931 50.0458 7.79249L50.0819 7.86294C51.0042 9.66376 51.9582 11.5264 53.5345 12.669C55.1315 13.8512 57.2444 14.196 59.2835 14.5162C61.1507 14.8117 63.0916 15.1319 63.7304 16.0185C64.3692 16.8806 64.0744 18.8016 63.7795 20.6734C63.4602 22.7422 63.1408 24.8603 63.755 26.7814C64.3692 28.6039 65.8433 30.1063 67.2683 31.5347C68.6441 32.8893 70.0445 34.3178 70.0445 35.4754C70.0445 36.6329 68.6441 38.0368 67.2683 39.416C65.8187 40.8445 64.3446 42.3222 63.755 44.1694C63.1408 46.0904 63.4602 48.2085 63.7795 50.2773L63.7979 50.404C64.0626 52.2352 64.3308 54.0896 63.7304 54.9322C63.0916 55.8188 61.1507 56.139 59.2835 56.4346C57.2444 56.7547 55.1315 57.0995 53.5345 58.2817C51.9581 59.4244 51.0042 61.287 50.0819 63.0878L50.0458 63.1582C49.1859 64.8576 48.2769 66.6309 47.2205 66.9757C46.2521 67.2912 44.4967 66.4111 42.9412 65.6313L42.8718 65.5965C42.8273 65.5745 42.7827 65.5524 42.7381 65.5303Z" fill="url(#paint1_linear)"/>
<path d="M26.7213 47C26.2802 47 25.8392 46.8284 25.4962 46.5098C24.8346 45.8481 24.8346 44.7452 25.4962 44.0835L46.0781 23.4963C46.7397 22.8346 47.8423 22.8346 48.5038 23.4963C49.1654 24.158 49.1654 25.2609 48.5038 25.9226L27.9219 46.5098C27.6034 46.8284 27.1623 47 26.7213 47Z" fill="white"/>
<path fill-rule="evenodd" clip-rule="evenodd" d="M22 27.5C22 31.0787 24.9213 34 28.5 34C32.0787 34 35 31.0787 35 27.5C35 23.9213 32.0787 21 28.5 21C24.9213 21 22 23.9213 22 27.5ZM25.4082 27.4757C25.4082 25.7715 26.7959 24.3839 28.5 24.3839C30.2041 24.3839 31.5918 25.7715 31.5918 27.4757C31.5918 29.1798 30.2041 30.5674 28.5 30.5674C26.7959 30.5674 25.4082 29.1798 25.4082 27.4757Z" fill="white"/>
<path fill-rule="evenodd" clip-rule="evenodd" d="M39 43.5C39 47.0787 41.9213 50 45.5 50C49.103 50 52 47.0787 52 43.5C52 39.9213 49.0787 37 45.5 37C41.9213 37 39 39.9213 39 43.5ZM42.4082 43.4757C42.4082 41.7715 43.7959 40.3839 45.5 40.3839C47.2041 40.3839 48.5918 41.7715 48.5918 43.4757C48.5918 45.1798 47.2041 46.5674 45.5 46.5674C43.7959 46.5674 42.4082 45.1798 42.4082 43.4757Z" fill="white"/>
<defs>
<linearGradient id="paint0_linear" x1="9.05301" y1="61.9732" x2="64.996" y2="61.9732" gradientUnits="userSpaceOnUse">
<stop stop-color="#FFB833"/>
<stop offset="1" stop-color="#FF964D"/>
</linearGradient>
<linearGradient id="paint1_linear" x1="0.0280571" y1="70.9485" x2="73.9719" y2="70.9485" gradientUnits="userSpaceOnUse">
<stop stop-color="#658BF5"/>
<stop offset="1" stop-color="#8DB0FF"/>
</linearGradient>
</defs>
</svg>

<svg width="74" height="71" fill="none" xmlns="http://www.w3.org/2000/svg"><path d="M65 35.5c0 2.82-3.8 4.983-4.634 7.511-.858 2.626.883 6.588-.711 8.776-1.618 2.212-5.983 1.774-8.214 3.379-2.206 1.58-3.138 5.834-5.786 6.684-2.55.827-5.81-2.041-8.655-2.041-2.844 0-6.08 2.868-8.655 2.041-2.648-.85-3.58-5.104-5.786-6.684-2.232-1.605-6.596-1.167-8.214-3.38-1.594-2.187.147-6.15-.711-8.775C12.8 40.483 9 38.295 9 35.5c0-2.82 3.8-4.983 4.634-7.511.858-2.626-.883-6.588.711-8.776 1.618-2.212 5.982-1.774 8.214-3.379 2.206-1.58 3.138-5.834 5.786-6.684 2.55-.827 5.81 2.041 8.655 2.041 2.844 0 6.08-2.868 8.655-2.041 2.648.85 3.58 5.104 5.786 6.684 2.231 1.605 6.596 1.167 8.214 3.38 1.594 2.187-.147 6.15.711 8.775C61.2 30.517 65 32.68 65 35.5z" fill="url(#paint0_linear)"/><path fill-rule="evenodd" clip-rule="evenodd" d="M25.576 70.744c.54.172 1.105.246 1.646.246 1.941 0 3.859-.961 5.61-1.84l.065-.032c1.474-.738 2.997-1.502 4.103-1.502 1.106 0 2.629.764 4.103 1.502 2.26 1.158 4.815 2.439 7.321 1.626 2.6-.836 3.927-3.44 5.105-5.753l.005-.01.052-.1c.72-1.396 1.442-2.796 2.258-3.398.86-.615 2.506-.886 4.078-1.132l.03-.005c2.523-.418 5.382-.89 6.972-3.074 1.597-2.167 1.155-5.024.762-7.561l-.024-.152c-.238-1.553-.481-3.132-.148-4.134.32-.935 1.45-2.093 2.555-3.201C71.912 40.377 74 38.284 74 35.5c0-2.783-2.088-4.877-3.93-6.724-1.106-1.108-2.261-2.265-2.556-3.201-.32-1.035-.074-2.685.172-4.286l.011-.076c.366-2.494.784-5.34-.773-7.485-1.59-2.183-4.449-2.656-6.972-3.074l-.03-.005c-1.597-.246-3.218-.517-4.078-1.132-.835-.616-1.597-2.07-2.31-3.498l-.047-.092c-1.168-2.269-2.494-4.845-5.063-5.67-2.477-.804-5.002.462-7.242 1.585l-.08.04C39.63 2.62 38.107 3.384 37 3.384c-1.106 0-2.629-.764-4.103-1.502C30.637.724 28.082-.557 25.576.256c-2.6.836-3.927 3.44-5.105 5.753l-.006.01-.051.1c-.72 1.396-1.442 2.796-2.258 3.398-.86.615-2.506.886-4.078 1.132l-.03.005c-2.524.418-5.382.89-6.972 3.074-1.597 2.167-1.155 5.024-.762 7.561l.023.152c.24 1.553.482 3.132.15 4.134-.32.936-1.45 2.093-2.556 3.201C2.088 30.624 0 32.716 0 35.5c0 2.783 2.088 4.877 3.93 6.724h.001c1.106 1.108 2.26 2.266 2.555 3.201.32 1.035.074 2.685-.172 4.286l-.011.076c-.366 2.494-.784 5.34.773 7.485 1.59 2.183 4.449 2.656 6.972 3.074l.03.005c1.597.246 3.218.517 4.078 1.133.835.615 1.597 2.068 2.31 3.497l.047.093c1.168 2.268 2.493 4.844 5.063 5.67zm17.162-5.214c-1.85-.915-3.747-1.855-5.738-1.855-1.991 0-3.889.94-5.738 1.855a163.986 163.986 0 01-.282.14c-1.559.77-3.272 1.616-4.2 1.306-1.057-.345-1.966-2.118-2.826-3.818l-.036-.07c-.922-1.801-1.876-3.664-3.453-4.806-1.596-1.182-3.71-1.527-5.748-1.847-1.868-.296-3.809-.616-4.447-1.503-.64-.862-.344-2.783-.05-4.655.32-2.069.64-4.187.025-6.108-.614-1.822-2.088-3.325-3.513-4.753-1.376-1.355-2.776-2.783-2.776-3.94 0-1.158 1.4-2.562 2.776-3.941 1.45-1.429 2.923-2.907 3.513-4.754.614-1.92.295-4.039-.024-6.108l-.019-.126c-.265-1.832-.533-3.686.068-4.529.638-.886 2.58-1.206 4.447-1.502 2.039-.32 4.152-.665 5.748-1.847 1.577-1.143 2.53-3.005 3.453-4.806l.036-.07c.86-1.7 1.77-3.473 2.826-3.818.968-.315 2.723.565 4.279 1.344l.07.035.133.066c1.85.916 3.747 1.855 5.738 1.855 2.04 0 3.96-.962 5.807-1.888l.065-.033.208-.103c1.54-.761 3.2-1.582 4.14-1.276 1.057.345 1.966 2.118 2.826 3.817l.036.07c.922 1.802 1.876 3.664 3.453 4.807 1.597 1.182 3.71 1.527 5.748 1.847 1.868.296 3.809.616 4.447 1.502.64.863.344 2.784.05 4.655-.32 2.07-.64 4.187-.025 6.108.614 1.823 2.088 3.325 3.513 4.754 1.376 1.354 2.776 2.783 2.776 3.94 0 1.158-1.4 2.562-2.776 3.941-1.45 1.428-2.923 2.906-3.513 4.753-.614 1.921-.295 4.04.024 6.108l.019.127c.265 1.831.533 3.686-.068 4.528-.638.887-2.58 1.207-4.447 1.503-2.039.32-4.151.664-5.748 1.847-1.577 1.142-2.53 3.005-3.453 4.806l-.036.07c-.86 1.7-1.77 3.473-2.825 3.818-.969.315-2.724-.565-4.28-1.345l-.07-.034-.133-.067z" fill="url(#paint1_linear)"/><path d="M26.721 47c-.44 0-.882-.172-1.225-.49a1.731 1.731 0 010-2.426l20.582-20.588a1.73 1.73 0 012.426 0 1.731 1.731 0 010 2.427L27.922 46.51c-.319.318-.76.49-1.2.49z" fill="#fff"/><path fill-rule="evenodd" clip-rule="evenodd" d="M22 27.5c0 3.579 2.921 6.5 6.5 6.5s6.5-2.921 6.5-6.5-2.921-6.5-6.5-6.5-6.5 2.921-6.5 6.5zm3.408-.024a3.096 3.096 0 013.092-3.092 3.096 3.096 0 013.092 3.092 3.096 3.096 0 01-3.092 3.091 3.096 3.096 0 01-3.092-3.091zM39 43.5c0 3.579 2.921 6.5 6.5 6.5 3.603 0 6.5-2.921 6.5-6.5S49.079 37 45.5 37 39 39.921 39 43.5zm3.408-.024a3.096 3.096 0 013.092-3.092 3.096 3.096 0 013.092 3.092 3.096 3.096 0 01-3.092 3.091 3.096 3.096 0 01-3.092-3.091z" fill="#fff"/><defs><linearGradient id="paint0_linear" x1="9.053" y1="61.973" x2="64.996" y2="61.973" gradientUnits="userSpaceOnUse"><stop stop-color="#FFB833"/><stop offset="1" stop-color="#FF964D"/></linearGradient><linearGradient id="paint1_linear" x1=".028" y1="70.948" x2="73.972" y2="70.948" gradientUnits="userSpaceOnUse"><stop stop-color="#658BF5"/><stop offset="1" stop-color="#8DB0FF"/></linearGradient></defs></svg>
